src/img/header/whatsapp.svg

<svg width="36" height="36" viewBox="0 0 36 36" fill="none" xmlns="http://www.w3.org/2000/svg">
<rect width="36" height="36" rx="18" fill="#2C4867"/>
<path fill-rule="evenodd" clip-rule="evenodd" d="M10.6317 21.4829L9.36011 25.9199L14.1111 24.7292C15.4202 25.4114 16.894 25.771 18.3938 25.7716H18.3977C23.3371 25.7716 27.3579 21.9299 27.3601 17.209C27.361 14.921 26.4299 12.7697 24.7376 11.1512C23.0453 9.53267 20.7951 8.64106 18.3978 8.63989C13.4576 8.63989 9.43746 12.4808 9.43539 17.2021C9.43349 18.7047 9.84611 20.1813 10.6317 21.4829ZM10.9498 17.2026C10.9513 13.2786 14.2928 10.0862 18.4018 10.0862C19.3804 10.084 20.3498 10.2674 21.2538 10.6256C22.1577 10.9839 22.9784 11.51 23.6682 12.1734C24.3618 12.8332 24.9117 13.618 25.2858 14.4822C25.66 15.3465 25.851 16.2731 25.8479 17.2084C25.8464 21.1326 22.5048 24.3254 18.399 24.3254H18.3962C17.0592 24.3247 15.7482 23.9816 14.6048 23.3331L14.3325 23.1789L11.5132 23.8854L12.2658 21.2593L12.0886 20.9901C11.3426 19.8556 10.9478 18.5425 10.9498 17.2026Z" fill="white"/>
<path fill-rule="evenodd" clip-rule="evenodd" d="M16.1588 13.6224C15.9909 13.266 15.8143 13.2588 15.6548 13.2526L15.2256 13.2476C15.0762 13.2476 14.8336 13.3012 14.6285 13.5154C14.4233 13.7296 13.8446 14.2473 13.8446 15.3002C13.8446 16.3532 14.6471 17.3707 14.7589 17.5136C14.8707 17.6566 16.3081 19.8862 18.5843 20.7441C20.4759 21.457 20.8608 21.3152 21.2715 21.2796C21.6823 21.244 22.5964 20.7619 22.7829 20.2621C22.9694 19.7624 22.9695 19.3342 22.9136 19.2447C22.8577 19.1552 22.7084 19.102 22.4843 18.9949C22.2601 18.8878 21.1594 18.3701 20.9541 18.2986C20.7489 18.2271 20.5996 18.1916 20.4502 18.4058C20.3007 18.62 19.8721 19.1018 19.7414 19.2447C19.6107 19.3875 19.4802 19.4054 19.2561 19.2985C19.032 19.1915 18.3109 18.9654 17.4553 18.2363C16.7896 17.669 16.3402 16.9684 16.2094 16.7544C16.0786 16.5403 16.1955 16.4243 16.3078 16.3177C16.4083 16.2218 16.5317 16.0677 16.6439 15.9428C16.7561 15.8179 16.793 15.7286 16.8676 15.586C16.9421 15.4434 16.9049 15.3182 16.8489 15.2112C16.7929 15.1042 16.3578 14.0456 16.1588 13.6224Z" fill="white"/>
</svg>

<svg width="36" height="36" fill="none" xmlns="http://www.w3.org/2000/svg"><rect width="36" height="36" rx="18" fill="#2C4867"/><path fill-rule="evenodd" clip-rule="evenodd" d="M10.632 21.483 9.36 25.92l4.751-1.19a9.288 9.288 0 0 0 4.283 1.042h.004c4.94 0 8.96-3.842 8.962-8.563.001-2.288-.93-4.44-2.622-6.058-1.693-1.618-3.943-2.51-6.34-2.511-4.94 0-8.96 3.84-8.963 8.562a8.257 8.257 0 0 0 1.197 4.28Zm.318-4.28c.001-3.924 3.343-7.117 7.452-7.117a7.7 7.7 0 0 1 2.852.54 7.432 7.432 0 0 1 2.414 1.547 7.061 7.061 0 0 1 1.618 2.31 6.8 6.8 0 0 1 .562 2.725c-.002 3.925-3.343 7.117-7.449 7.117h-.003a7.703 7.703 0 0 1-3.791-.992l-.273-.154-2.819.706.753-2.626-.177-.269a6.869 6.869 0 0 1-1.14-3.787Z" fill="#fff"/><path fill-rule="evenodd" clip-rule="evenodd" d="M16.159 13.622c-.168-.356-.345-.363-.504-.37l-.43-.004a.84.84 0 0 0-.596.267c-.206.215-.784.732-.784 1.785s.802 2.07.914 2.214c.112.143 1.55 2.372 3.825 3.23 1.892.713 2.277.571 2.688.536.41-.036 1.324-.518 1.51-1.018.187-.5.188-.928.132-1.017-.056-.09-.206-.143-.43-.25-.224-.107-1.325-.625-1.53-.696-.205-.072-.354-.107-.504.107-.15.214-.578.696-.709.839-.13.142-.26.16-.485.053-.224-.106-.945-.333-1.8-1.062-.666-.567-1.116-1.268-1.247-1.482-.13-.214-.014-.33.099-.436.1-.096.224-.25.336-.375.112-.125.149-.214.224-.357.074-.143.037-.268-.02-.375-.055-.107-.49-1.165-.69-1.589Z" fill="#fff"/></svg>
